icon-themes/breeze_svg/cmd/32/extrusiontoggle.svg

<svg viewBox="0 0 32 32" xmlns="http://www.w3.org/2000/svg"><path d="m28 4-6 6h-18v18h19l5-5z" fill="#b3b3b3"/><path d="m8.6464844 4-4.6464844 4.6464844v.3535156 1 17 1h8 4 7l4.292969-4.292969.707031-.707031v-1-18h-1-17-.6464844-.3535156zm1.3535156 1h16.292969l-4 4h-.292969-12-1-3.9394531l3.9394531-3.9394531zm17 .7070312v16.9140628l-.414062.378906-3.585938 3.585938v-3.585938-1-12.2929688zm-22 4.2929688h17v12 1 4h-6v-8h2l-4-5-4 5h2v8h-6.2929688-.7070312v-.707031z" fill="#4d4d4d"/></svg>

<svg xmlns="http://www.w3.org/2000/svg" viewBox="0 0 32 32">
 <path 
     style="fill:#b3b3b3" 
     d="M 28 4 L 22 10 L 4 10 L 4 28 L 23 28 L 28 23 L 28 4 z "
     />
 <path 
     style="fill:#4d4d4d" 
     d="M 8.6464844 4 L 4 8.6464844 L 4 9 L 4 10 L 4 27 L 4 28 L 12 28 L 16 28 L 23 28 L 27.292969 23.707031 L 28 23 L 28 22 L 28 4 L 27 4 L 10 4 L 9.3535156 4 L 9 4 L 8.6464844 4 z M 10 5 L 26.292969 5 L 22.292969 9 L 22 9 L 10 9 L 9 9 L 5.0605469 9 L 9 5.0605469 L 10 5 z M 27 5.7070312 L 27 22.621094 L 26.585938 23 L 23 26.585938 L 23 23 L 23 22 L 23 9.7070312 L 27 5.7070312 z M 5 10 L 22 10 L 22 22 L 22 23 L 22 27 L 16 27 L 16 19 L 18 19 L 14 14 L 10 19 L 12 19 L 12 27 L 5.7070312 27 L 5 27 L 5 26.292969 L 5 10 z "
     />
</svg>
